X:1
T:Title
%%score { ( 1 3 ) | 2 }
L:1/8
M:4/4
K:Bb
V:1 treble nm="Grand Piano"
V:3 treble 
V:2 bass 
V:1
 z4 z[Q:1/4=94] DD[CE] | [DF]3 [DF] [DB][DA][Dc][DB] | [EB]2 A2- ACCD | E3 F G2 F2 | D4- DDD[CE] | %5
 [DF]3 [DF] [FB][FA][Dc][FB] | [FA]2 G2- GG z [B,GB] | B,B,B,B c2 A2 |[M:5/8] [DB]-[DB]- [DB]3 | %9
[M:3/8] [_AB][AB][AB] |[M:4/4] [Ge]3 [Ge] [Ge][Ge][GB][^Fc] | [Fd]4- [Fd][Fd][Fd][Fd] | %12
 [Fc]3 [FA] [=EB][EB][EA][EG] | F4- FDD[CE] | [DF]2 [DB]2- [DB][DB][EA][FB] | c2 G2- GGA[B,GB] | %16
 B,B,B,B c2 A2 |[M:5/8] [DB]- [DB]3 z |] %18
V:2
 z4 z [B,,F,B,][B,,F,B,][B,,F,] | [B,,B,]3 [B,,B,] [B,,F,][B,,F,][B,,F,][B,,F,] | %2
 [C,F,]2 [F,E]2- [F,E][F,A,][F,A,][F,B,] | [F,A,C]3 [F,A,D] [F,A,E]2 [F,D]2 | %4
 [B,,F,B,]4- [B,,F,B,][B,,F,B,][B,,F,B,][B,,F,] | [B,,B,]3 [B,,B,] [D,B,][D,B,][D,B,][D,B,] | %6
 [E,B,]2 [E,B,E]2- [E,B,E][K:treble]EA[K:bass]E, | F,F,F,[F,DF] [F,A,E]2 [F,CE]2 | %8
[M:5/8] [B,,B,]-[B,,B,]- [B,,B,]3 |[M:3/8] [D,B,][D,B,][D,B,] | %10
[M:4/4] [E,B,]3 [E,B,] [E,B,][E,B,][E,E][E,B,] | [B,,B,]4- [B,,B,][B,,B,][B,,B,][B,,B,] | %12
 [C,A,]3 [C,C] [C,G,][C,G,][C,C][C,B,] | [F,A,]4- [F,A,][B,,F,B,][B,,F,B,][B,,F,] | %14
 [B,,B,]2 [B,,F,]2- [B,,F,][B,,F,][B,,F,][D,B,] | %15
 [E,G,E]2 [E,B,E]2- [E,B,E][K:treble]EF[K:bass]E, | F,F,F,[F,DF] [F,A,E]2 [F,CE]2 | %17
[M:5/8] [B,,B,]- [B,,B,]3 z |] %18
V:3
 x8 | x8 | x8 | x8 | x8 | x8 | x8 | [DF]4 z4 |[M:5/8] x5 |[M:3/8] x3 |[M:4/4] x8 | x8 | x8 | x8 | %14
 x8 | x8 | [DF]4 z4 |[M:5/8] x5 |] %18

